X:1
T:Lady McNeil
T:Lady McNeil
T:William Marshall
C:William Marshall
%%score { ( 1 2 ) 3 }
L:1/8
M:4/4
K:Bb
V:1 treble 
V:2 treble 
V:3 bass 
V:1
 TB2 (FD) GEBG | FDGE (ED)(CB,) |{f} edef (gf)(ed) | cBAG FGAF | B2 FD GEBG | FDG>E ED{D}CB, | %6
 d2 b2 agfe | [Ed]c[EB]A [DB]4 |] edef gfed | cBcd edcB | AFGA Bcde | gfed{d} [Ac]4 | %12
 B2 (FD) GEBG | FDGE (ED)(CB,) | d2 b2 agfe | [Ed]c[EB]A [DB]4 |] %16
V:2
 x8 | x8 | x8 | x8 | x8 | x8 | x4 B4 | x8 |] x8 | x8 | x8 | x8 | x8 | x8 | x4 B4 | x8 |] %16
V:3
 [Bb]2 [Bb]2 [Beb]2 [Beb]2 | [Bdb]2 [Beb]2 [Bfb]2 [Bfb]2 | [Cc]2 [Cc]2 [Ee]2 [Ee]2 | %3
 [Ff]2 [Ff]2 [Ff]2 [Ff]2 | [Bb]2 [Bb]2 [Beb]2 [Beb]2 | [Bdb]2 [Beb]2 [Bb]2 [Bb]2 | %6
 [Bb]2 [Bb]2 [Ee]2 [Ee]2 | [Ff]2 [Ff]2 [B,B]4 |] [Cc]2 [Cc]2 [Ee]2 [Ee]2 | %9
 [Ff]2 [Ff]2 [Bb]2 [Bb]2 | [Ff]2 [Ee]2 [Dd]2 [Cc]2 | [B,b]2 [Dd]2 [Ff]2 [Ff]2 | %12
 [Bb]2 [Bb]2 [Beb]2 [Beb]2 | [Bdb]2 [Beb]2 [Bfb]2 [Bfb]2 | [Bb]2 [Bb]2 [Ee]2 [Ee]2 | %15
 [Ff]2 [Ff]2 [B,B]4 |] %16

